src/lib/packages/icons/src/assets/filled/home-activity.svg

<svg width="24" height="24" viewBox="0 0 24 24" fill="none" xmlns="http://www.w3.org/2000/svg">
<path fill-rule="evenodd" clip-rule="evenodd" d="M19.5699 8.58608L13.606 3.58498C12.677 2.80598 11.3219 2.80598 10.3929 3.58498L4.42896 8.58608C3.52296 9.34608 2.99902 9.65302 2.99902 11.651V18C2.99902 20 3.99902 21 5.99902 21H17.999C19.999 21 20.999 20 20.999 18V11.651C21 9.65202 20.4769 9.34608 19.5699 8.58608ZM16.53 13.33L14.295 15.565C13.691 16.169 12.709 16.1691 12.106 15.5661L10.835 14.297L8.53101 16.5291C8.38501 16.6751 8.19298 16.749 8.00098 16.749C7.80898 16.749 7.61695 16.6761 7.47095 16.5291C7.17795 16.2361 7.17795 15.761 7.47095 15.468L9.703 13.236C10.308 12.633 11.291 12.632 11.894 13.235L13.165 14.5041L15.4709 12.2691C15.7639 11.9761 16.239 11.9761 16.532 12.2691C16.825 12.5621 16.823 13.037 16.53 13.33Z" fill="currentColor"/>
</svg>

<svg xmlns="http://www.w3.org/2000/svg" width="24" height="24" fill="none"><path fill="currentColor" fill-rule="evenodd" d="m19.57 8.586-5.964-5.001a2.5 2.5 0 0 0-3.213 0L4.429 8.586c-.906.76-1.43 1.067-1.43 3.065V18c0 2 1 3 3 3h12c2 0 3-1 3-3v-6.349c.001-1.999-.522-2.305-1.43-3.065Zm-3.04 4.744-2.235 2.235a1.55 1.55 0 0 1-2.189.001l-1.271-1.269-2.304 2.232a.748.748 0 0 1-1.06 0 .75.75 0 0 1 0-1.061l2.232-2.232a1.553 1.553 0 0 1 2.191-.001l1.271 1.27 2.306-2.236a.75.75 0 1 1 1.059 1.061Z" clip-rule="evenodd"/></svg>
